dist/svg/tag.svg

<svg width="16" height="16" viewBox="0 0 16 16" fill="rgb(34, 34, 34)" xmlns="http://www.w3.org/2000/svg"><title>tag</title><path d="M9.57698 -7.08003e-06L0.475982 9.10099C0.193982 9.37099 0.0189819 9.75099 0.0189819 10.172C0.0189819 10.593 0.193982 10.972 0.474982 11.242H0.475982L4.75898 15.524C5.02898 15.806 5.40898 15.981 5.82998 15.981C6.25098 15.981 6.62998 15.806 6.89998 15.525L16 6.42299V-0.00100708L9.57698 -7.08003e-06ZM12.5 4.99999C11.672 4.99999 11 4.32799 11 3.49999C11 2.67199 11.672 1.99999 12.5 1.99999C13.328 1.99999 14 2.67199 14 3.49999C14 4.32799 13.328 4.99999 12.5 4.99999Z" fill="rgb(34, 34, 34)" fill-opacity="1.00"/></svg>

<!-- Generated by Trend Micro Style Portal -->
<svg version="1.1" xmlns="http://www.w3.org/2000/svg" width="16" height="16" viewBox="0 0 16 16">
  <title>tag</title>
  <path fill="rgb(34,34,34)" d="M9.577 0l-9.101 9.101c-0.282 0.27-0.457 0.65-0.457 1.071s0.175 0.8 0.456 1.070l0.001 0 4.283 4.282c0.27 0.282 0.65 0.457 1.071 0.457s0.8-0.175 1.070-0.456l0-0.001 9.1-9.101v-6.424zM12.5 5c-0.828 0-1.5-0.672-1.5-1.5s0.672-1.5 1.5-1.5c0.828 0 1.5 0.672 1.5 1.5v0c0 0.828-0.672 1.5-1.5 1.5v0z"></path>
</svg>
